X:812
T:Graemsay Jig
S:Sessions
Z:Nigel Gatherer
M:6/8
L:1/8
K:D
A2A BAF | A2B d2e | faa baf | efe edB |
A2A BAF | A2B d2e | faf edB | d3  d3 :|
ABd B2A | ABd B2A | faa baf | efe edB |
ABd B2A | ABd B2A | faf edB | d3  d3 :|
